icons/hexagon-star.svg

<svg xmlns="http://www.w3.org/2000/svg" width="24" height="24" viewBox="0 0 24 24">
  <path d="M16.3173342,1 C17.0224657,1 17.6754933,1.37131518 18.0360686,1.97728201 L23.3914405,10.977282 C23.7664613,11.6075253 23.7664613,12.3924747 23.3914405,13.022718 L18.0360686,22.022718 C17.6754933,22.6286848 17.0224657,23 16.3173342,23 L7.68266576,23 C6.97753431,23 6.32450667,22.6286848 5.96393136,22.022718 L0.608559463,13.022718 C0.233538656,12.3924747 0.233538656,11.6075253 0.608559463,10.977282 L5.96393136,1.97728201 C6.32450667,1.37131518 6.97753431,1 7.68266576,1 L16.3173342,1 Z M12.4425657,6.36281539 C11.9473121,6.11839309 11.3476862,6.32173209 11.1032639,6.81698575 L11.1032639,6.81698575 L9.94275162,9.16844052 L7.34776721,9.54551383 C7.13013018,9.57713834 6.92898777,9.67962551 6.77547916,9.83710915 C6.38997795,10.2325927 6.39807026,10.865706 6.79355384,11.2512072 L6.79355384,11.2512072 L8.67130219,13.0815595 L8.22802594,15.6660584 C8.19084909,15.882816 8.22616377,16.1057841 8.32850284,16.3004446 C8.58550365,16.7892891 9.1901308,16.9772357 9.67897539,16.7202349 L9.67897539,16.7202349 L12,15.5 L14.3210246,16.7202349 C14.5156851,16.8225739 14.7386532,16.8578886 14.9554108,16.8207118 C15.4997472,16.7273507 15.8653351,16.2103948 15.7719741,15.6660584 L15.7719741,15.6660584 L15.3286978,13.0815595 L17.2064462,11.2512072 C17.3639298,11.0976986 17.466417,10.8965562 17.4980415,10.6789192 C17.5774591,10.1323743 17.1987777,9.62493144 16.6522328,9.54551383 L16.6522328,9.54551383 L14.0572484,9.16844052 L12.8967361,6.81698575 C12.7994058,6.61977315 12.6397783,6.46014562 12.4425657,6.36281539 Z"/>
</svg>

<svg xmlns="http://www.w3.org/2000/svg" viewBox="0 0 24 24">
  <path d="M16.32 1a2 2 0 0 1 1.72.98l5.35 9a2 2 0 0 1 0 2.04l-5.35 9a2 2 0 0 1-1.72.98H7.68a2 2 0 0 1-1.72-.98l-5.35-9a2 2 0 0 1 0-2.04l5.35-9A2 2 0 0 1 7.68 1h8.64zm-3.88 5.36a1 1 0 0 0-1.34.46L9.94 9.17l-2.6.38a1 1 0 0 0-.55 1.7l1.88 1.83-.44 2.59a1 1 0 0 0 1.45 1.05L12 15.5l2.32 1.22a1 1 0 0 0 1.45-1.05l-.44-2.59 1.88-1.83a1 1 0 0 0-.56-1.7l-2.6-.38-1.15-2.35a1 1 0 0 0-.46-.46z"/>
</svg>
